src/components/00-materials/images-raw/Pin Locator.svg

<svg width="96" height="96" viewBox="0 0 96 96" fill="none" xmlns="http://www.w3.org/2000/svg">
<path d="M71 39.9998C71.001 36.8102 70.3386 33.6553 69.0548 30.7354C67.771 27.8156 65.894 25.1947 63.5429 23.0393C61.1918 20.8838 58.4181 19.2409 55.3981 18.215C52.378 17.189 49.1775 16.8024 46 17.0798C32.46 18.2298 23 31.2298 25.39 44.5798C25.8093 47.0002 26.6486 49.3286 27.87 51.4598L46.87 80.4098C47.0036 80.5937 47.1788 80.7433 47.3812 80.8465C47.5837 80.9496 47.8077 81.0034 48.035 81.0034C48.2622 81.0034 48.4863 80.9496 48.6888 80.8465C48.8912 80.7433 49.0664 80.5937 49.2 80.4098L68.2 51.4598C70.1324 47.9554 71.0987 44.0004 71 39.9998V39.9998Z" stroke="#00008F" stroke-width="2" stroke-linecap="round" stroke-linejoin="round"/>
<path d="M48 50C53.5228 50 58 45.5228 58 40C58 34.4772 53.5228 30 48 30C42.4772 30 38 34.4772 38 40C38 45.5228 42.4772 50 48 50Z" stroke="#00008F" stroke-width="2" stroke-linecap="round" stroke-linejoin="round"/>
</svg>

<svg width="96" height="96" viewBox="0 0 96 96" fill="none" xmlns="http://www.w3.org/2000/svg"><path d="M71 40a23 23 0 00-25-22.92c-13.54 1.15-23 14.15-20.61 27.5a21.07 21.07 0 002.48 6.88l19 28.95a1.44 1.44 0 002.33 0l19-28.95A22.58 22.58 0 0071 40v0z" stroke="#00008F" stroke-width="2" stroke-linecap="round" stroke-linejoin="round"/><path d="M48 50c5.523 0 10-4.477 10-10s-4.477-10-10-10-10 4.477-10 10 4.477 10 10 10z" stroke="#00008F" stroke-width="2" stroke-linecap="round" stroke-linejoin="round"/></svg>
